X:6
T:Mendiant du jour - D150-5
C:M. Scouarnec
M:4/4
L:1/8
K:Cm
"Dom"z2zC CC|:"Dom"G2FG"Fam"A2AG|"Sib"F2EF"Mib7M"G2GF|"Lab7M"E3C "Rem"FEDC|[1"Sol"D4zC CC:|
[2"Sol"D4zD EF|"Mib"G2Gc"Sib"B2GF|"Dom"E2FG"Sib7"A4|"Mib7M"G6Gc|"Sib"B2GF"Dom"E2FG|\
"Sib"F4"Mib"E4|]
